src/material_cursors/text.svg

<svg xmlns="http://www.w3.org/2000/svg" id="svg5327" width="32" height="32" version="1.1">
 <defs id="defs5329">
  <filter id="filter876" style="color-interpolation-filters:sRGB" width="1.165" height="1.068" x="-.08" y="-.03">
   <feGaussianBlur id="feGaussianBlur878" stdDeviation=".24"/>
  </filter>
 </defs>
 <g id="layer1" transform="translate(0,-1020.3622)">
  <path id="path862" style="opacity:0.3;fill:#000000;fill-opacity:1;stroke:none;stroke-width:1.99936354;stroke-linecap:round;stroke-linejoin:round;stroke-miterlimit:4;stroke-dasharray:none;stroke-dashoffset:0;stroke-opacity:1;paint-order:normal;filter:url(#filter876)" d="m 12.5,1027.8622 c -0.277,0 -0.5,0.223 -0.5,0.5 v 2 c 0,0.277 0.223,0.5 0.5,0.5 h 1.501953 v 5 6 H 12.5 c -0.277,0 -0.5,0.223 -0.5,0.5 v 2 c 0,0.277 0.223,0.5 0.5,0.5 h 2 c 6.53e-4,0 0.0013,0 0.002,0 h 1.998 2 c 0.277,0 0.5,-0.223 0.5,-0.5 v -2 c 0,-0.277 -0.223,-0.5 -0.5,-0.5 H 17 v -6 -5 h 1.5 c 0.277,0 0.5,-0.223 0.5,-0.5 v -2 c 0,-0.277 -0.223,-0.5 -0.5,-0.5 h -2 -1.998047 c -6.65e-4,0 -0.0013,0 -0.002,0 z"/>
  <path id="rect825" style="opacity:1;fill:#526d78;fill-opacity:1;stroke:none;stroke-width:1.99936354;stroke-linecap:round;stroke-linejoin:round;stroke-miterlimit:4;stroke-dasharray:none;stroke-dashoffset:0;stroke-opacity:1;paint-order:normal" transform="translate(0,1020.3622)" d="M 12.5 7 C 12.223 7 12 7.223 12 7.5 L 12 9.5 C 12 9.777 12.223 10 12.5 10 L 14.001953 10 L 14.001953 15 L 14.001953 21 L 12.5 21 C 12.223 21 12 21.223 12 21.5 L 12 23.5 C 12 23.777 12.223 24 12.5 24 L 14.5 24 C 14.500653 24.000002 14.5013 24 14.501953 24 L 16.5 24 L 18.5 24 C 18.777 24 19 23.777 19 23.5 L 19 21.5 C 19 21.223 18.777 21 18.5 21 L 17 21 L 17 15 L 17 10 L 18.5 10 C 18.777 10 19 9.777 19 9.5 L 19 7.5 C 19 7.223 18.777 7 18.5 7 L 16.5 7 L 14.501953 7 C 14.501288 6.9999974 14.500666 7 14.5 7 L 12.5 7 z"/>
  <path id="path853" style="opacity:0.25;fill:#000000;fill-opacity:1;stroke:none;stroke-width:1.99936354;stroke-linecap:round;stroke-linejoin:round;stroke-miterlimit:4;stroke-dasharray:none;stroke-dashoffset:0;stroke-opacity:1;paint-order:normal" transform="translate(0,1020.3622)" d="M 12.5 7 C 12.223 7 12 7.223 12 7.5 L 12 9.5 C 12 9.777 12.223 10 12.5 10 L 14.001953 10 L 14.001953 15 L 14.001953 21 L 12.5 21 C 12.223 21 12 21.223 12 21.5 L 12 23.5 C 12 23.777 12.223 24 12.5 24 L 14.5 24 C 14.500653 24.000002 14.5013 24 14.501953 24 L 16.5 24 L 18.5 24 C 18.777 24 19 23.777 19 23.5 L 19 21.5 C 19 21.223 18.777 21 18.5 21 L 17 21 L 17 15 L 17 10 L 18.5 10 C 18.777 10 19 9.777 19 9.5 L 19 7.5 C 19 7.223 18.777 7 18.5 7 L 16.5 7 L 14.501953 7 C 14.501288 6.9999974 14.500666 7 14.5 7 L 12.5 7 z"/>
  <path id="path855" style="color:#000000;font-style:normal;font-variant:normal;font-weight:normal;font-stretch:normal;font-size:medium;line-height:normal;font-family:sans-serif;font-variant-ligatures:normal;font-variant-position:normal;font-variant-caps:normal;font-variant-numeric:normal;font-variant-alternates:normal;font-feature-settings:normal;text-indent:0;text-align:start;text-decoration:none;text-decoration-line:none;text-decoration-style:solid;text-decoration-color:#000000;letter-spacing:normal;word-spacing:normal;text-transform:none;writing-mode:lr-tb;direction:ltr;text-orientation:mixed;dominant-baseline:auto;baseline-shift:baseline;text-anchor:start;white-space:normal;shape-padding:0;clip-rule:nonzero;display:inline;overflow:visible;visibility:visible;opacity:0.05;isolation:auto;mix-blend-mode:normal;color-interpolation:sRGB;color-interpolation-filters:linearRGB;solid-color:#000000;solid-opacity:1;vector-effect:none;fill:#010101;fill-opacity:1;fill-rule:nonzero;stroke:none;stroke-width:2;stroke-linecap:round;stroke-linejoin:round;stroke-miterlimit:4;stroke-dasharray:none;stroke-dashoffset:0;stroke-opacity:1;paint-order:normal;color-rendering:auto;image-rendering:auto;shape-rendering:auto;text-rendering:auto;enable-background:accumulate" transform="translate(0,1020.3622)" d="M 12.5 7 C 12.223 7 12 7.223 12 7.5 L 12 9.5 C 12 9.777 12.223 10 12.5 10 L 14.001953 10 L 14.001953 15 L 14.001953 21 L 12.5 21 C 12.223 21 12 21.223 12 21.5 L 12 23.5 C 12 23.777 12.223 24 12.5 24 L 14.5 24 C 14.5 24 14.501953 24 14.501953 24 L 16.5 24 L 18.5 24 C 18.777 24 19 23.777 19 23.5 L 19 21.5 C 19 21.223 18.777 21 18.5 21 L 17 21 L 17 15 L 17 10 L 18.5 10 C 18.777 10 19 9.777 19 9.5 L 19 7.5 C 19 7.223 18.777 7 18.5 7 L 16.5 7 L 14.501953 7 C 14.501953 7 14.5 7 14.5 7 L 12.5 7 z M 13 8 L 14.5 8 A 1.0001 1.0001 0 0 0 14.501953 8 L 16.5 8 L 18 8 L 18 9 L 17 9 A 1.0001 1.0001 0 0 0 16 10 L 16 15 L 16 21 A 1.0001 1.0001 0 0 0 17 22 L 18 22 L 18 23 L 16.5 23 L 14.503906 23 A 1.0001 1.0001 0 0 0 14.5 23 L 13 23 L 13 22 L 14.001953 22 A 1.0001 1.0001 0 0 0 15.001953 21 L 15.001953 15 L 15.001953 10 A 1.0001 1.0001 0 0 0 14.001953 9 L 13 9 L 13 8 z"/>
 </g>
</svg>

<svg xmlns="http://www.w3.org/2000/svg" id="svg5327" width="32" height="32" version="1.1">
 <defs id="defs5329">
  <filter id="filter876" style="color-interpolation-filters:sRGB" width="1.165" height="1.068" x="-.08" y="-.03">
   <feGaussianBlur id="feGaussianBlur878" stdDeviation=".24"/>
  </filter>
 </defs>
 <path id="path862" style="opacity:0.3;fill:#000000;fill-opacity:1;stroke:none;stroke-width:1.99936354;stroke-linecap:round;stroke-linejoin:round;stroke-miterlimit:4;stroke-dasharray:none;stroke-dashoffset:0;stroke-opacity:1;paint-order:normal;filter:url(#filter876)" d="M 12.5,7.5 C 12.223,7.5 12,7.723 12,8 v 2 c 0,0.277 0.223,0.5 0.5,0.5 h 1.501953 v 5 6 H 12.5 C 12.223,21.5 12,21.723 12,22 v 2 c 0,0.277 0.223,0.5 0.5,0.5 h 2 c 6.53e-4,0 0.0013,0 0.002,0 h 1.998 2 c 0.277,0 0.5,-0.223 0.5,-0.5 v -2 c 0,-0.277 -0.223,-0.5 -0.5,-0.5 H 17 v -6 -5 h 1.5 C 18.777,10.5 19,10.277 19,10 V 8 C 19,7.723 18.777,7.5 18.5,7.5 h -2 -1.998047 c -6.65e-4,0 -0.0013,0 -0.002,0 z"/>
 <path id="path824" style="opacity:0.75;fill:none;fill-opacity:1;stroke:#010101;stroke-width:2;stroke-linecap:round;stroke-linejoin:round;stroke-miterlimit:4;stroke-dasharray:none;stroke-dashoffset:0;stroke-opacity:1;paint-order:normal" d="M 12.5,7 C 12.223,7 12,7.223 12,7.5 v 2 c 0,0.277 0.223,0.5 0.5,0.5 h 1.501953 v 5 6 H 12.5 C 12.223,21 12,21.223 12,21.5 v 2 c 0,0.277 0.223,0.5 0.5,0.5 h 2 c 6.53e-4,2e-6 0.0013,0 0.002,0 h 1.998 2 c 0.277,0 0.5,-0.223 0.5,-0.5 v -2 C 19,21.223 18.777,21 18.5,21 H 17 v -6 -5 h 1.5 C 18.777,10 19,9.777 19,9.5 v -2 C 19,7.223 18.777,7 18.5,7 h -2 -1.998047 c -6.65e-4,-2.6e-6 -0.0013,0 -0.002,0 z"/>
 <path id="rect825" style="opacity:1;fill:#526d78;fill-opacity:1;stroke:none;stroke-width:1.99936354;stroke-linecap:round;stroke-linejoin:round;stroke-miterlimit:4;stroke-dasharray:none;stroke-dashoffset:0;stroke-opacity:1;paint-order:normal" d="M 12.5,7 C 12.223,7 12,7.223 12,7.5 v 2 c 0,0.277 0.223,0.5 0.5,0.5 h 1.501953 v 5 6 H 12.5 C 12.223,21 12,21.223 12,21.5 v 2 c 0,0.277 0.223,0.5 0.5,0.5 h 2 c 6.53e-4,2e-6 0.0013,0 0.002,0 h 1.998 2 c 0.277,0 0.5,-0.223 0.5,-0.5 v -2 C 19,21.223 18.777,21 18.5,21 H 17 v -6 -5 h 1.5 C 18.777,10 19,9.777 19,9.5 v -2 C 19,7.223 18.777,7 18.5,7 h -2 -1.998047 c -6.65e-4,-2.6e-6 -0.0013,0 -0.002,0 z"/>
 <path id="path853" style="opacity:0.25;fill:#000000;fill-opacity:1;stroke:none;stroke-width:1.99936354;stroke-linecap:round;stroke-linejoin:round;stroke-miterlimit:4;stroke-dasharray:none;stroke-dashoffset:0;stroke-opacity:1;paint-order:normal" d="M 12.5,7 C 12.223,7 12,7.223 12,7.5 v 2 c 0,0.277 0.223,0.5 0.5,0.5 h 1.501953 v 5 6 H 12.5 C 12.223,21 12,21.223 12,21.5 v 2 c 0,0.277 0.223,0.5 0.5,0.5 h 2 c 6.53e-4,2e-6 0.0013,0 0.002,0 h 1.998 2 c 0.277,0 0.5,-0.223 0.5,-0.5 v -2 C 19,21.223 18.777,21 18.5,21 H 17 v -6 -5 h 1.5 C 18.777,10 19,9.777 19,9.5 v -2 C 19,7.223 18.777,7 18.5,7 h -2 -1.998047 c -6.65e-4,-2.6e-6 -0.0013,0 -0.002,0 z"/>
</svg>
